src/_icons/banksyd.svg

---
version: "0.0.4"
---
<svg>
  <path d="M24.469 32.911l12.125 6.952l-12.124 6.637v-13.589zm-13.219 -7.58l12.399 7.166v14.003l-12.399 -6.646v-14.524zm0 -15.58l25.344 14.54v14.551l-25.344 -14.55v-14.542zm12.49 -8.251v14.423l-12.49 -7.213l12.49 -7.21z" />
</svg>

<svg>
  <path d="m24.469 32.911 12.125 6.952L24.47 46.5V32.911Zm-13.219-7.58 12.399 7.166V46.5L11.25 39.854V25.33Zm0-15.58 25.344 14.54v14.551L11.25 24.292V9.75ZM23.74 1.5v14.423L11.25 8.71 23.74 1.5Z"/>
</svg>
